X:416
T: SO SINGEN WIR SO TRINKEN WIR
N: F0763
O: Europa, Mitteleuropa, Deutschland
R: Geselligkeits -, Trink - Lied, Neujahr
M: 3/4
L: 1/16
K: A
E2c2B2 | A6B2c2A2 | B4z2
E2d2c2 | B6c2d2B2 | c8
c4 | B2c2d2c2B2c2 | d8
d4 | c2d2e2d2c2d2 | e8
c4 | d8D4 | E8
E4 | E4c4B3A | A4z2

